X: 1
T:Lord Nelson's Hornpipe,aka TS.101
T:Miss Grimstrobs Hornpipe,aka TS.083
T:Bridge of Lodi,The,aka TS.083
T:Saxon's Hornpipe,aka TS.083
M:C
L:1/8
Q:1/2=90
S:Thomas Sands' MS,1810,Lincolnshire
R:.hornpipe
N:Different key and setting from TS.101
O:Lincolnshire
Z:vmp.Ruairidh Greig, 2011
F:http://www.village-music-project.org.uk/abc/sands.abc	 2013-01-02 034005 UT
K:D
AF|D2d2d2cd|ecAc d2de|fefd gfge|afdf ec AF|!
D2d2d2cd|ecAc d2d2|cdec dB A^G|A2A2A2:|!
|:fg|agfe dcBA|B2G2G2 ga|bagf edcB|c2A2A2fg|!
afaf gbgb|afaf gbgb|afbg fdec|d2d2d2:|]

